packages/foundations/assets/icons/functional/images/audio & video/skip_backward_32_filled.svg

<svg xmlns="http://www.w3.org/2000/svg" width="32" height="32" fill="none"><g clip-path="url(#a)"><path fill="#1A1C1F" fill-rule="evenodd" d="M25 23V9c0-1.094-.906-2-1.969-2-.406 0-.812.125-1.156.344l-10.031 7.031A1.97 1.97 0 0 0 11 16c0 .656.313 1.25.844 1.625l10.031 7.031c.344.219.75.344 1.156.344C24.125 25 25 24.094 25 23M9 23V9c0-.563-.438-1-1-1s-1 .438-1 1v14c0 .563.438 1 1 1s1-.438 1-1" clip-rule="evenodd"/></g><defs><clipPath id="a"><path fill="#fff" d="M0 0h32v32H0z"/></clipPath></defs></svg>

<svg width="32" height="32" viewBox="0 0 32 32" fill="none" xmlns="http://www.w3.org/2000/svg">
<g clip-path="url(#clip0_2202_566)">
<path fill-rule="evenodd" clip-rule="evenodd" d="M25 23V9C25 7.906 24.094 7 23.031 7C22.625 7 22.219 7.125 21.875 7.344L11.844 14.375C11.5824 14.5574 11.369 14.8006 11.222 15.0836C11.075 15.3666 10.9988 15.6811 11 16C11 16.656 11.313 17.25 11.844 17.625L21.875 24.656C22.219 24.875 22.625 25 23.031 25C24.125 25 25 24.094 25 23ZM9 23V9C9 8.437 8.562 8 8 8C7.437 8 7 8.438 7 9V23C7 23.563 7.438 24 8 24C8.563 24 9 23.562 9 23Z" fill="#1A1C1F"/>
</g>
<defs>
<clipPath id="clip0_2202_566">
<rect width="32" height="32" fill="white"/>
</clipPath>
</defs>
</svg>
